X: 6013
T: Canty Auld Man, The
R: jig
M: 6/8
K: Gmajor
|:D|GAG GAB|cee e2g|dBG dBG|FAA A2D|
GAG GAB|cee e2g|dBG cAF|G3 G2:|
|:B|cdc cAF|d2B dBG|e2c dBG|FAA A2B|
cdc cAF|d2B dBG|efg BcA|G3 G2:|
|:B/c/|dBG D2B|cAF D2c|BGB cAc|BGB ABc|
dBG D2B|cAF D2c|BGB cAc|BcA G2:|

